X:1
T:The Munster Bank
R:polka
M:2/4
L:1/8
K:A
|:A>F EF|AB ce|fe cB/c/|BA FA|
|A/B/A/F/ EF|AB ce|fe cB/c/|BA A2:|
|:fe ce|fe e2|a>f ec|B/c/B/A/ FA|
|A/B/A/F/ EF|AB ce|fe cB/c/|BA A2:|